packages/icons/svg/Outline/triangle-up.svg

<svg width="24" height="24" viewBox="0 0 24 24" fill="none" xmlns="http://www.w3.org/2000/svg">
<g id="Icon/Outline/triangle-up">
<path id="Mask" fill-rule="evenodd" clip-rule="evenodd" d="M8.01366 14H15.9087L11.9977 9.17799L8.01366 14ZM16.2127 16H7.78666C7.11466 16 6.50666 15.598 6.20166 14.951C5.85666 14.218 5.95666 13.351 6.45966 12.741L10.6737 7.64199C11.3457 6.82499 12.6547 6.82499 13.3257 7.64199L17.5387 12.74C18.0427 13.351 18.1437 14.218 17.7977 14.951C17.4927 15.598 16.8857 16 16.2127 16Z" fill="#000000"/>
</g>
</svg>

<svg fill="none" height="24" viewBox="0 0 24 24" width="24" xmlns="http://www.w3.org/2000/svg"><path clip-rule="evenodd" d="m8.0137 14.0002h7.895l-3.911-4.82202zm8.199 1.9998h-8.42598c-.672 0-1.28-.402-1.585-1.049-.345-.733-.245-1.6.258-2.21l4.21398-5.09895c.672-.817 1.981-.817 2.652 0l4.213 5.09795c.504.611.605 1.478.259 2.211-.305.647-.912 1.049-1.585 1.049z" fill="#6b7280" fill-rule="evenodd"/></svg>
